X:350
T:The Back-40 Jig
R:jig
C:Bruce Osborne  --  Apr.26 1993
M:6/8
L:1/8
Z:abc by Bruce Osborne - bosborne@kos.net
K:G
B/c/|dBG DGD|G,B,D GBG|AcA DFA|ed^c dB=c|
dBG DGD|G,B,D GBG|AcA DEF|G4 -G:|
|:B/c/|dgd BdB|GAB D2 G|AcA DFA|ed^c dB=c|
dgd BdB|GAB D2 G|AcA DEF|G2 -G3:|
